X: 1
T: Buckley's Fancy
M: 4/4
L: 1/8
R: reel
K: Gmaj
D2|:G2BG dGBG|1 ABcd (3efg dB:|2 ABAG FDEF:||
G2BG dGBG|ABcd efga|(3bag (3agf gedB|GBAF G2ef|
|:g2ga gede|gabg agef|g2ga gedB|1 GBAF G2ef:|2 GBAF G4||
